icons/config.svg

<svg width="24" height="24" viewBox="0 0 24 24" xmlns="http://www.w3.org/2000/svg">
    <path fill-rule="evenodd"
        d="M21.3162 10.2715L18.1641 4.75539C17.5439 3.6699 16.3895 3 15.1393 3H8.86153C7.61132 3 6.45696 3.6699 5.83669 4.75539L2.68461 10.2715C2.07258 11.3426 2.07258 12.6574 2.68461 13.7285L5.83668 19.2446C6.45696 20.3301 7.61132 21 8.86153 21H15.1393C16.3895 21 17.5439 20.3301 18.1641 19.2446L21.3162 13.7285C21.9282 12.6574 21.9282 11.3426 21.3162 10.2715ZM12.0004 16C14.2095 16 16.0004 14.2091 16.0004 12C16.0004 9.79086 14.2095 8 12.0004 8C9.79126 8 8.0004 9.79086 8.0004 12C8.0004 14.2091 9.79126 16 12.0004 16Z" />
</svg>

<svg xmlns="http://www.w3.org/2000/svg" width="24" height="24" viewBox="0 0 24 24">
    <path
        d="M21.316 10.271l-3.152-5.516C17.544 3.67 16.39 3 15.14 3H8.862c-1.25 0-2.405.67-3.025 1.755l-3.152 5.516c-.612 1.072-.612 2.386 0 3.457l3.152 5.517C6.457 20.33 7.61 21 8.862 21h6.277c1.25 0 2.405-.67 3.025-1.755l3.152-5.517c.612-1.07.612-2.385 0-3.457zM12 16c2.21 0 4-1.79 4-4s-1.79-4-4-4c-2.209 0-4 1.79-4 4s1.791 4 4 4z" />
</svg>
